src/assets/svgs/logo.svg

<?xml version="1.0" encoding="UTF-8"?>
<svg width="565px" height="133px" viewBox="0 0 565 133" version="1.1" xmlns="http://www.w3.org/2000/svg" xmlns:xlink="http://www.w3.org/1999/xlink">
    <!-- Generator: Sketch 62 (91390) - https://sketch.com -->
    <title>logo</title>
    <desc>Created with Sketch.</desc>
    <defs>
        <polygon id="path-1" points="0 0 564.635851 0 564.635851 132.729858 0 132.729858"></polygon>
    </defs>
    <g id="tinu.be" stroke="none" stroke-width="1" fill="none" fill-rule="evenodd">
        <g id="Desktop-HD" transform="translate(-75.000000, -64.000000)">
            <g id="@logo/Light" transform="translate(75.000000, 64.000000)">
                <g id="Group-12" transform="translate(0.000000, -0.000000)">
                    <mask id="mask-2" fill="white">
                        <use xlink:href="#path-1"></use>
                    </mask>
                    <g id="Clip-2"></g>
                    <path d="M217.508701,118.123223 L238.397608,118.123223 L238.397608,49.9921912 L217.508701,49.9921912 L217.508701,118.123223 Z M219.034868,39.6744679 C216.714327,37.5184803 215.553551,34.8516241 215.553551,31.67694 C215.553551,28.4221793 216.714327,25.7147779 219.034868,23.556763 C221.356418,21.4017891 224.349199,20.3222749 228.014221,20.3222749 C231.596474,20.3222749 234.54989,21.4017891 236.870431,23.556763 C239.191982,25.7147779 240.351747,28.4221793 240.351747,31.67694 C240.351747,34.8516241 239.191982,37.5184803 236.870431,39.6744679 C234.54989,41.8324827 231.596474,42.9099697 228.014221,42.9099697 C224.349199,42.9099697 221.356418,41.8324827 219.034868,39.6744679 L219.034868,39.6744679 Z" id="Fill-1" fill="#FFFFFF" mask="url(#mask-2)"></path>
                    <path d="M314.569814,56.6946345 C319.350404,61.8921009 321.740699,69.0296965 321.740699,78.1114993 L321.740699,118.123223 L300.901268,118.123223 L300.901268,80.9345249 C300.901268,76.352843 299.715259,72.7937306 297.346288,70.2571876 C294.974271,67.721664 291.786873,66.4513535 287.784093,66.4513535 C283.779283,66.4513535 280.591885,67.721664 278.221899,70.2571876 C275.850897,72.7937306 274.666919,76.352843 274.666919,80.9345249 L274.666919,118.123223 L253.704622,118.123223 L253.704622,49.6375803 L274.666919,49.6375803 L274.666919,58.7193831 C276.791174,55.6934748 279.650592,53.3006828 283.24822,51.5399876 C286.843816,49.7813313 290.889243,48.9004739 295.3845,48.9004739 C303.393105,48.9004739 309.788209,51.4992071 314.569814,56.6946345" id="Fill-3" fill="#FFFFFF" mask="url(#mask-2)"></path>
                    <path d="M550.144095,78.1244674 C550.060949,73.015613 548.234777,68.9206292 544.663551,65.8374902 C541.088269,62.756377 536.665302,61.2148075 531.388567,61.2148075 C526.597527,61.2148075 522.499032,62.735107 519.088015,65.7777316 C515.679025,68.8183305 513.648029,72.9345843 512.999084,78.1244674 L550.144095,78.1244674 Z M564.149142,89.3175582 L512.877407,89.3175582 C513.281984,94.6705113 515.270392,98.9700923 518.845674,102.21225 C522.415886,105.457446 526.801336,107.079031 531.997967,107.079031 C539.46692,107.079031 544.743655,103.957404 547.829186,97.712123 L562.807651,97.712123 C560.778684,103.876375 557.104032,108.925471 551.787752,112.857385 C546.468429,116.792337 539.870483,118.758294 531.997967,118.758294 C525.582536,118.758294 519.838357,117.31801 514.764418,114.439468 C509.690478,111.56194 505.712647,107.504432 502.830925,102.274034 C499.947175,97.0426241 498.507328,90.9796577 498.507328,84.086148 C498.507328,77.1926382 499.90763,71.1296719 502.709248,65.8982617 C505.509852,60.6678644 509.446109,56.633652 514.522077,53.7935989 C519.593989,50.9555716 525.4203,49.535545 531.997967,49.535545 C538.330252,49.535545 543.972019,50.9160701 548.926309,53.6710431 C553.877558,56.4300676 557.733711,60.3022227 560.49477,65.290547 C563.254815,70.2778585 564.635851,76.0167104 564.635851,82.5040642 C564.635851,85.0200028 564.471587,87.2908298 564.149142,89.3175582 L564.149142,89.3175582 Z" id="Fill-4" fill="#3C5BDD" mask="url(#mask-2)"></path>
                    <path d="M396.459467,118.021187 C396.040105,116.341034 395.814686,114.582377 395.814686,112.771726 C395.814686,106.318222 398.647661,100.531479 403.129651,96.582913 L403.129651,49.535545 L382.205237,49.535545 L382.205237,86.7232234 C382.205237,91.3069442 381.021276,94.8660567 378.655387,97.4015802 C376.288482,99.9391428 373.067623,101.207414 368.988748,101.207414 C364.991106,101.207414 361.808832,99.9391428 359.443958,97.4015802 C357.077053,94.8660567 355.896139,91.3069442 355.896139,86.7232234 L355.896139,49.535545 L335.093574,49.535545 L335.093574,89.546249 C335.093574,95.5216022 336.194271,100.714991 338.39668,105.133551 C340.59909,109.552111 343.699116,112.927711 347.697774,115.260352 C351.69237,117.591973 356.303316,118.758294 361.524519,118.758294 C365.930354,118.758294 369.947289,117.837676 373.577355,115.996439 C377.207422,114.155202 380.082028,111.72163 382.205237,108.694702 L382.205237,118.021187 L396.459467,118.021187 Z" id="Fill-5" fill="#FFFFFF" mask="url(#mask-2)"></path>
                    <path d="M431.742954,112.407583 C431.742954,120.123542 425.480455,126.379147 417.753718,126.379147 C410.028,126.379147 403.765502,120.123542 403.765502,112.407583 C403.765502,104.691624 410.028,98.436019 417.753718,98.436019 C425.480455,98.436019 431.742954,104.691624 431.742954,112.407583" id="Fill-6" fill="#FFFFFF" mask="url(#mask-2)"></path>
                    <path d="M471.856465,95.9261396 C469.934368,99.4277862 467.398793,102.092281 464.25178,103.924691 C461.102725,105.755074 457.729103,106.671279 454.130913,106.671279 C450.613363,106.671279 447.281592,105.776357 444.133558,103.984487 C440.984504,102.195658 438.447907,99.5706898 436.527851,96.1095833 C434.605754,92.6515174 433.645216,88.6005532 433.645216,83.9607449 C433.645216,79.3209366 434.605754,75.2922694 436.527851,71.87373 C438.447907,68.4551906 440.984504,65.8504926 444.133558,64.0586226 C447.281592,62.269793 450.613363,61.3728445 454.130913,61.3728445 C457.729103,61.3728445 461.102725,62.2485095 464.25178,63.998826 C467.398793,65.750156 469.934368,68.3133004 471.856465,71.6902863 C473.777542,75.0692992 474.739101,79.0776963 474.739101,83.7164911 C474.739101,88.3562994 473.777542,92.4285471 471.856465,95.9261396 M484.799743,65.7075889 C482.017142,60.4566394 478.214799,56.4087158 473.390673,53.5587505 C468.563483,50.7108122 463.165688,49.2858296 457.198306,49.2858296 C452.126134,49.2858296 447.525554,50.3226413 443.397588,52.3993052 C439.26758,54.4749556 436.016449,57.1414771 433.645216,60.3968429 L433.645216,27.3080569 L419.661781,27.3080569 L419.661781,91.1484951 C430.385919,92.3738181 438.715347,101.435532 438.715347,112.437087 C438.715347,112.590126 438.70616,112.742151 438.704119,112.894176 C440.088273,113.926934 441.606148,114.867463 443.275096,115.706642 C447.323443,117.739725 451.963832,118.758294 457.198306,118.758294 C463.086068,118.758294 468.462428,117.274528 473.328406,114.301929 C478.193363,111.331357 482.017142,107.180057 484.799743,101.848027 C487.577239,96.5180243 488.96956,90.4745169 488.96956,83.7164911 C488.96956,76.9615059 487.577239,70.957525 484.799743,65.7075889" id="Fill-7" fill="#3C5BDD" mask="url(#mask-2)"></path>
                    <path d="M205.379932,100.47555 L205.379932,118.123223 L194.850795,118.123223 C187.346564,118.123223 181.495585,116.277774 177.300886,112.584852 C173.104169,108.893955 171.00682,102.868661 171.00682,94.5109954 L171.00682,67.492331 L162.777903,67.492331 L162.777903,50.210104 L171.00682,50.210104 L171.00682,33.6587678 L191.703761,33.6587678 L191.703761,50.210104 L205.258815,50.210104 L205.258815,67.492331 L191.703761,67.492331 L191.703761,94.7549631 C191.703761,96.7836407 192.188231,98.24441 193.156161,99.1362587 C194.1251,100.031144 195.73798,100.47555 197.996819,100.47555 L205.379932,100.47555 Z" id="Fill-8" fill="#FFFFFF" mask="url(#mask-2)"></path>
                    <path d="M132.662885,60.8898888 C129.634928,24.364968 97.5345265,-2.79341939 60.9647188,0.229807797 C24.3949111,3.25404813 -2.79685234,35.3150483 0.230090217,71.839969 C3.25804716,108.36489 35.3584484,135.523277 71.928256,132.50005 C79.2572306,131.894189 86.1987077,130.10396 92.6066153,127.364414 L110.521774,129.06042 C112.36898,129.399824 114.142135,128.181009 114.481956,126.336071 L117.159948,109.239235 C128.14073,96.2831256 134.175341,79.1447506 132.662885,60.8898888" id="Fill-9" fill="#FFFFFF" mask="url(#mask-2)"></path>
                    <path d="M57.9115743,34.9119472 L46.4775236,46.8028185 C46.1070462,47.188562 45.7528088,47.5855011 45.4178566,47.9916003 C45.0981295,48.3783615 44.7966725,48.7753007 44.5084106,49.1803821 C44.4779604,49.2231294 44.4475102,49.2658767 44.41706,49.3096418 C44.1643233,49.671976 43.9237667,50.0414347 43.6974202,50.4159824 C43.4670137,50.7946013 43.2508173,51.1772913 43.0478159,51.5671059 C42.9392102,51.7737178 42.8346645,51.9833831 42.7341789,52.1940661 C42.5809128,52.5126352 42.4357669,52.8352755 42.300771,53.1599513 C42.2733658,53.2250901 42.2459606,53.2912466 42.2195704,53.3563853 C42.1119797,53.6210114 42.0104791,53.8876731 41.9140534,54.1553525 C41.7942826,54.4912241 41.6816169,54.830149 41.5791012,55.1700918 C41.5202308,55.3644902 41.4654205,55.5599064 41.4136551,55.7553226 C41.3486947,55.9945038 41.2888093,56.2336851 41.2339989,56.4728664 C41.1314832,56.911535 41.0441927,57.353257 40.9721272,57.7959968 C40.940662,57.9853062 40.9122418,58.1746156 40.8868666,58.3649429 C40.8645365,58.5288075 40.8442363,58.6926721 40.8259662,58.8565367 C40.8097261,58.9980099 40.795516,59.1394831 40.7823209,59.2799384 C40.7518707,59.6147922 40.7285256,59.9506638 40.7143155,60.2855176 C40.7061954,60.474827 40.7011204,60.6641364 40.6980754,60.8534459 C40.6944758,61.0905915 40.6930003,61.3257016 40.6970604,61.5628473 C40.6970604,61.5659007 40.6970604,61.5699719 40.6970604,61.574043 C40.7011204,61.8325624 40.7122855,62.0900639 40.7264956,62.3475654 C40.7386756,62.5663909 40.7528857,62.7852163 40.7721709,63.0030239 C40.793486,63.2534009 40.8208912,63.5037779 40.8513414,63.7531371 C40.8970167,64.1225958 40.9518271,64.4920545 41.0178025,64.8584599 C41.1030631,65.3449647 41.2076088,65.8284162 41.3283945,66.3088144 C41.5841762,67.3235536 41.9160834,68.323026 42.3261462,69.295018 C42.3545663,69.3621923 42.3840015,69.4283488 42.4124217,69.4955231 C42.755494,70.286348 43.1503316,71.0588526 43.5959196,71.8089658 C44.4292401,73.2135196 45.4401868,74.5386856 46.6307896,75.7498588 C46.7546205,75.8770829 46.8814963,76.0022714 47.0093871,76.1264421 C47.138293,76.2506128 47.2671989,76.3717301 47.3981347,76.4918297 C48.801889,77.7823907 50.3406392,78.8408951 51.9646499,79.6703961 C52.5614739,79.9747161 53.1684479,80.2474845 53.785572,80.4917547 C53.8525624,80.5171995 53.9195529,80.5436621 53.9865433,80.5701247 C54.9721148,80.9456902 55.9790015,81.2418679 57.0000983,81.4617111 C57.4832415,81.5655259 57.9684147,81.6520383 58.4566329,81.7212482 C58.8250803,81.7731556 59.1945428,81.8148851 59.5640052,81.8474545 C59.8147119,81.8678103 60.0644035,81.8861306 60.3151102,81.8993619 C60.5333366,81.9095398 60.7515631,81.9166644 60.9697895,81.9207356 C61.1474157,81.9241706 61.3240269,81.9248067 61.5026681,81.9241706 C61.6681142,81.9227712 61.8325452,81.9197178 61.9979913,81.9146288 C62.1522724,81.9095398 62.3055384,81.9034331 62.4588044,81.8963085 C62.6475956,81.8861306 62.8363869,81.8728993 63.0251781,81.8576324 C63.3591153,81.8311698 63.6920375,81.7965649 64.0239447,81.7538176 C64.1650307,81.7344795 64.3040866,81.7161592 64.4451725,81.6937678 C64.6085886,81.6703586 64.7699747,81.6449138 64.9323758,81.6153978 C65.121167,81.5828284 65.3089432,81.5472057 65.4967195,81.5095473 C65.9352024,81.4199816 66.3716553,81.3161667 66.8060782,81.1991206 C67.0425747,81.1349997 67.2790713,81.0657898 67.5135378,80.9935265 C67.7074041,80.9324589 67.8992404,80.8713914 68.0910767,80.8052348 C68.4270439,80.6902243 68.7599661,80.5660536 69.0908583,80.4327227 C69.35476,80.3268723 69.6166318,80.2149151 69.8764735,80.097869 C69.9404189,80.068353 70.0043643,80.038837 70.0683097,80.009321 C70.3880369,79.8617411 70.703704,79.7039832 71.016326,79.5401186 C71.2213574,79.4312148 71.4263887,79.3182398 71.6293901,79.2022114 C72.0100176,78.9844038 72.3835401,78.7543827 72.7519875,78.5101125 C73.1163749,78.2688956 73.4756873,78.0144474 73.8289096,77.7477858 C73.8705249,77.7162342 73.9131552,77.6836648 73.9547705,77.6521133 C74.3475781,77.3488111 74.7322656,77.0312598 75.1057881,76.6974238 C75.4996107,76.3462853 75.8822682,75.9778444 76.2527457,75.592101 C78.3365545,73.4262382 78.273624,69.9647255 76.1136898,67.8751972 C73.9527405,65.7866867 70.5007026,65.8487721 68.4179088,68.0156526 C67.2476061,69.2319148 65.8377617,70.0797361 64.3345368,70.5570808 C64.2919065,70.5703121 64.2492762,70.5815078 64.206646,70.5947391 C63.3398302,70.8563118 62.4425643,70.997785 61.5432683,71.0140697 C60.9038141,71.0262832 60.2633449,70.9753936 59.6320107,70.8624186 C57.7857135,70.531636 56.0135117,69.6695656 54.5650971,68.2680652 C53.1166826,66.8675825 52.1930265,65.1241037 51.7971738,63.2849525 C51.1292994,60.1898451 51.9605899,56.8250226 54.3133755,54.3782491 L65.7474262,42.4883956 C69.496861,38.589232 75.7107321,38.4752392 79.5992228,42.2349652 C81.4840903,44.0578318 82.4798119,46.4608402 82.5802975,48.8974358 C85.1523246,50.0516126 87.5710856,51.6617606 89.7137648,53.7329686 C90.6201658,54.609288 91.4453662,55.5395505 92.1903811,56.5115425 C94.9461244,49.0216065 93.2439581,40.2655365 87.1549328,34.3786239 C78.9455585,26.4408591 65.8276117,26.6800404 57.9115743,34.9119472" id="Fill-10" fill="#3C5BDD" mask="url(#mask-2)"></path>
                    <path d="M81.5638711,53.0600011 C80.9680626,52.755685 80.3600739,52.4819023 79.7439652,52.2396707 C79.5196489,52.1511239 79.2953325,52.0666482 79.0689862,51.9872614 C78.8527899,51.910928 78.6335486,51.8376478 78.4143072,51.7684388 C78.1920209,51.698212 77.9687196,51.6310386 77.7444032,51.568954 C77.381031,51.4671761 77.0156288,51.3755759 76.6492117,51.2951713 C76.0665982,51.1659133 75.4809396,51.0631176 74.8922361,50.9847486 C74.7613003,50.9674463 74.6293495,50.9521796 74.4973987,50.9379307 C73.2905565,50.8015483 72.0745792,50.7699971 70.863677,50.8463306 C70.8037916,50.8504017 70.7428912,50.8544728 70.6840209,50.8585439 C69.9846817,50.9084151 69.2873725,50.9939086 68.5951384,51.1150244 C68.4073622,51.1475933 68.2195861,51.1832156 68.03181,51.2218912 C67.1548447,51.3989849 66.2880295,51.6330741 65.4364394,51.9251769 C65.2567833,51.9872614 65.0781423,52.0513815 64.8995012,52.118555 C64.4792887,52.2763108 64.0631362,52.4472978 63.6530737,52.6335514 C63.5881133,52.6620493 63.5241679,52.6915649 63.4602226,52.7210805 C63.1151205,52.8808719 62.7750935,53.050841 62.4381114,53.2299702 C62.2818005,53.3144459 62.1265046,53.3999394 61.9701936,53.4874685 C61.5428761,53.7307178 61.1216485,53.9892338 60.7095561,54.265052 C60.3908442,54.4777679 60.0772073,54.6996439 59.7686454,54.9306798 C59.689475,54.9907288 59.6092895,55.0517956 59.530119,55.1138801 C59.1525367,55.4059829 58.7830745,55.7113167 58.4217323,56.0339528 C58.028925,56.384069 57.6462677,56.7525052 57.2757905,57.1382436 C55.191983,59.3050963 55.2549134,62.7665645 57.4148463,64.8550481 C59.5757943,66.9445494 63.02783,66.8814471 65.1116375,64.7145945 C65.6232005,64.181278 66.1844989,63.7222594 66.7762474,63.3304143 C67.0858243,63.1258406 67.4045362,62.9406048 67.7303532,62.7747067 C67.8359138,62.7217822 67.9414744,62.6708932 68.0470351,62.6220398 C69.4304884,61.9808387 70.9337124,61.6775404 72.4318614,61.7182515 C72.4643416,61.7192693 72.4958067,61.7213049 72.5272719,61.7233404 C72.7739184,61.7314827 73.0205649,61.7508205 73.2661964,61.7783005 C73.371757,61.7905139 73.4773176,61.8047628 73.5828783,61.8200295 C73.6874239,61.8352962 73.7919695,61.8505629 73.8965151,61.8688829 C75.7428112,62.1986435 77.5139968,63.0607027 78.9634255,64.4621852 C82.8519138,68.2218628 82.9645795,74.4527091 79.215147,78.3518224 L67.7811035,90.2425407 C64.031671,94.1416541 57.8167887,94.2546277 53.9293154,90.4949501 C52.0444491,88.6731247 51.0497431,86.2691294 50.9482425,83.8325652 C48.3762171,82.6784032 45.9574576,81.0692938 43.8157948,78.9981125 C42.9083793,78.1218043 42.0831794,77.190536 41.3381649,76.2185565 C38.5824234,83.7094139 40.2856036,92.4653712 46.3736101,98.3511903 C54.5819643,106.288853 67.700918,106.049675 75.6169505,97.8188916 L87.050994,85.9271555 C87.4214712,85.5424349 87.7757084,85.1455008 88.1106604,84.738389 C88.4182072,84.3658817 88.709514,83.9831966 88.9866106,83.5944048 C89.045481,83.5140002 89.1023213,83.4315601 89.1601767,83.34912 C89.380433,83.0325905 89.5895242,82.7089366 89.7894804,82.3832472 C90.049322,81.9598509 90.2919085,81.5283124 90.5182548,81.0906672 C90.6004703,80.9318936 90.6796408,80.77312 90.7577963,80.6123108 C90.9242573,80.2683013 91.0815832,79.9212385 91.2277441,79.5701046 C91.2551492,79.5049667 91.2825544,79.4398288 91.3089446,79.3746909 C91.4794656,78.9563835 91.6347615,78.5329872 91.7758474,78.1065376 C91.8367477,77.924355 91.8946031,77.7421725 91.9494134,77.5610078 C92.209255,76.6969129 92.4112412,75.819587 92.556387,74.9351366 C92.5878522,74.7458296 92.6162724,74.5555048 92.6416476,74.3661978 C92.7370581,73.668001 92.7969435,72.9667509 92.8213036,72.2644831 C92.8233336,72.2044341 92.8253637,72.1433673 92.8273937,72.0833183 C92.8342728,71.7830733 92.8365287,71.4807928 92.8314537,71.1795301 L92.8314537,71.1561212 C92.8152136,70.2492796 92.7380731,69.3444736 92.6040923,68.4457743 C92.5848072,68.3134629 92.5645071,68.1821694 92.542177,68.0508758 C92.4427064,67.4646348 92.3198906,66.8804293 92.1696697,66.3023306 C92.0752742,65.9369477 91.9717435,65.5746182 91.8570478,65.2143242 C91.7870124,64.9914305 91.711902,64.7705724 91.6327315,64.550732 C91.556606,64.3339449 91.4764206,64.1171579 91.3921751,63.9013886 C91.3038695,63.6784949 91.210489,63.456619 91.1160934,63.2357608 C90.7730213,62.4449461 90.378184,61.6714337 89.9325963,60.9213302 C89.0992763,59.5178122 88.0883302,58.1916455 86.8977281,56.9815056 C86.7728824,56.8553009 86.6470216,56.7290963 86.5191308,56.6059449 C86.3902251,56.4807581 86.2603043,56.3596423 86.1303835,56.2395443 C84.7266301,54.9479821 83.1878809,53.8905092 81.5638711,53.0600011" id="Fill-11" fill="#3C5BDD" mask="url(#mask-2)"></path>
                </g>
            </g>
        </g>
    </g>
</svg>

<svg xmlns="http://www.w3.org/2000/svg" xmlns:xlink="http://www.w3.org/1999/xlink" viewBox="0 0 565 133">
  <defs>
    <path id="a" d="M0 0h564.64v132.73H0z"/>
  </defs>
  <g fill="none" fill-rule="evenodd">
    <mask id="b" fill="#fff">
      <use xlink:href="#a"/>
    </mask>
    <path fill="#FFF" d="M217.5 118.12h20.9V50h-20.9v68.13zm1.53-78.45a10.48 10.48 0 01-3.48-8c0-3.25 1.16-5.96 3.48-8.11 2.33-2.16 5.32-3.24 8.98-3.24 3.59 0 6.54 1.08 8.86 3.24a10.62 10.62 0 013.48 8.12c0 3.17-1.16 5.84-3.48 8-2.32 2.15-5.27 3.23-8.86 3.23-3.66 0-6.65-1.08-8.98-3.24zM314.57 56.7c4.78 5.2 7.17 12.33 7.17 21.41v40.01H300.9V80.93c0-4.58-1.18-8.14-3.55-10.67-2.38-2.54-5.56-3.8-9.57-3.8-4 0-7.19 1.26-9.56 3.8-2.37 2.53-3.55 6.1-3.55 10.67v37.2H253.7v-68.5h20.97v9.09a22.13 22.13 0 018.58-7.18 27.26 27.26 0 0112.13-2.64c8.01 0 14.4 2.6 19.19 7.8" mask="url(#b)"/>
    <path fill="#3C5BDD" d="M550.14 78.12c-.08-5.1-1.9-9.2-5.48-12.28-3.57-3.08-8-4.63-13.27-4.63-4.8 0-8.9 1.53-12.3 4.57-3.41 3.04-5.44 7.15-6.1 12.34h37.15zm14 11.2h-51.26c.4 5.35 2.39 9.65 5.97 12.9 3.57 3.24 7.95 4.86 13.15 4.86 7.47 0 12.74-3.12 15.83-9.37h14.98a30.19 30.19 0 01-11.02 15.15c-5.32 3.93-11.92 5.9-19.8 5.9-6.4 0-12.15-1.44-17.23-4.32a30.73 30.73 0 01-11.93-12.17c-2.88-5.23-4.32-11.29-4.32-18.18 0-6.9 1.4-12.96 4.2-18.2a29.53 29.53 0 0111.81-12.1c5.07-2.83 10.9-4.25 17.48-4.25 6.33 0 11.97 1.38 16.93 4.13a29.26 29.26 0 0111.56 11.62c2.76 4.99 4.15 10.73 4.15 17.21 0 2.52-.17 4.8-.5 6.82z" mask="url(#b)"/>
    <path fill="#FFF" d="M396.46 118.02a21.66 21.66 0 016.67-21.44V49.54h-20.92v37.18c0 4.59-1.19 8.15-3.55 10.68-2.37 2.54-5.6 3.8-9.67 3.8-4 0-7.18-1.26-9.55-3.8-2.36-2.53-3.54-6.1-3.54-10.68V49.54h-20.8v40c0 5.98 1.1 11.17 3.3 15.6 2.2 4.41 5.3 7.79 9.3 10.12 4 2.33 8.6 3.5 13.82 3.5 4.41 0 8.43-.92 12.06-2.76a23 23 0 008.63-7.3v9.32h14.25zM431.74 112.4a13.98 13.98 0 11-27.96-.01 13.98 13.98 0 0127.96.02" mask="url(#b)"/>
    <path fill="#3C5BDD" d="M471.86 95.93a20.3 20.3 0 01-7.6 8 19.9 19.9 0 01-27.72-7.82c-1.93-3.46-2.9-7.5-2.9-12.15 0-4.64.97-8.67 2.89-12.09a20.04 20.04 0 0117.6-10.5c3.6 0 6.97.88 10.12 2.63a19.73 19.73 0 017.6 7.69c1.93 3.38 2.89 7.39 2.89 12.03s-.96 8.7-2.88 12.2m12.94-30.21a30.14 30.14 0 00-11.4-12.15 31.27 31.27 0 00-16.2-4.27c-5.07 0-9.67 1.03-13.8 3.1a26.5 26.5 0 00-9.75 8V27.32h-13.99v63.84a21.47 21.47 0 0119.06 21.29l-.02.45a30.61 30.61 0 004.58 2.82c4.04 2.03 8.68 3.05 13.92 3.05 5.89 0 11.26-1.49 16.13-4.46a31.1 31.1 0 0011.47-12.45c2.78-5.33 4.17-11.38 4.17-18.13 0-6.76-1.4-12.76-4.17-18.01" mask="url(#b)"/>
    <path fill="#FFF" d="M205.38 100.48v17.64h-10.53c-7.5 0-13.35-1.84-17.55-5.54-4.2-3.69-6.3-9.71-6.3-18.07V67.5h-8.22V50.21H171V33.66h20.7V50.2h13.55v17.28H191.7v27.26c0 2.03.49 3.5 1.46 4.39.97.9 2.58 1.34 4.84 1.34h7.38zM132.66 60.89A66.42 66.42 0 0060.96.23 66.39 66.39 0 00.23 71.84a66.42 66.42 0 0092.38 55.52l17.91 1.7a3.4 3.4 0 003.96-2.72l2.68-17.1a66.1 66.1 0 0015.5-48.35" mask="url(#b)"/>
    <path fill="#3C5BDD" d="M57.91 34.91l-11.43 11.9a21.1 21.1 0 00-4.18 6.35 16.06 16.06 0 00-.39 1 21.55 21.55 0 00-1.13 5.12 20.9 20.9 0 00-.08 2.28v.01a19.62 19.62 0 00.32 3.29 20.37 20.37 0 001.3 4.44l.1.2a20.52 20.52 0 004.98 7 20.56 20.56 0 0013.57 5.42h.53a22.18 22.18 0 002.52-.17l.43-.06a13.11 13.11 0 001.05-.18 21.81 21.81 0 004.38-1.41l.19-.1a21.02 21.02 0 003.76-2.25l.12-.1a20.82 20.82 0 002.3-2.06 5.44 5.44 0 10-7.83-7.58 9.75 9.75 0 01-4.09 2.55l-.12.03a9.84 9.84 0 01-9.64-2.32 9.84 9.84 0 01-.25-13.89l11.43-11.9a9.79 9.79 0 0116.83 6.42 24.94 24.94 0 019.61 7.61 20.8 20.8 0 00-5.04-22.13 20.66 20.66 0 00-29.24.53" mask="url(#b)"/>
    <path fill="#3C5BDD" d="M81.56 53.06a20.47 20.47 0 00-10.7-2.21h-.18a20.64 20.64 0 00-13.4 6.29 5.44 5.44 0 107.84 7.58 9.8 9.8 0 017.31-3h.1a9.46 9.46 0 011.05.1l.32.05a9.85 9.85 0 015.32 16.48l-11.44 11.9a9.79 9.79 0 01-16.83-6.42 24.92 24.92 0 01-9.61-7.61 20.8 20.8 0 005.03 22.13 20.67 20.67 0 0029.25-.53l11.43-11.9A20.42 20.42 0 0089 83.6l.17-.24a20.13 20.13 0 002.07-3.78l.08-.2a20 20 0 001.33-5c.1-.7.16-1.4.18-2.1v-.19c.01-.3.02-.6.01-.9v-.02a20.92 20.92 0 00-5.93-14.18 21.98 21.98 0 00-.77-.74 20.56 20.56 0 00-4.57-3.18" mask="url(#b)"/>
  </g>
</svg>
